Papirus/22x22/panel/pushbullet-indicator-sync1-light.svg

<?xml version="1.0" encoding="UTF-8" standalone="no"?>
<svg xmlns:dc="http://purl.org/dc/elements/1.1/" xmlns:cc="http://creativecommons.org/ns#" xmlns:rdf="http://www.w3.org/1999/02/22-rdf-syntax-ns#" xmlns:svg="http://www.w3.org/2000/svg" xmlns="http://www.w3.org/2000/svg" height="22" width="22" version="1.1" id="svg3039">
    <metadata id="metadata3045">
        <rdf:RDF>
            <cc:Work rdf:about="">
                <dc:format>
                    image/svg+xml
                </dc:format>
                <dc:type rdf:resource="http://purl.org/dc/dcmitype/StillImage"/>
                <dc:title/>
            </cc:Work>
        </rdf:RDF>
    </metadata>
    <path id="path3075" d="m 2.9997526,5 0,12 2,0 0,-12 -2,0 z m 4,0 0,12 4.2519534,-0.0332 c 2.931252,-0.03263 3.207984,-0.07195 4.447266,-0.675781 2.70203,-1.316495 3.979696,-4.504659 2.941406,-7.3437504 C 17.954648,7.0722573 16.393122,5.684604 14.40405,5.1796875 13.779295,5.0210954 13.38327,5 10.954831,5 L 6.9997526,5 Z m 6.2636724,1.9179688 c 0.797566,0.03798 1.68057,0.3700227 2.564453,1.2539062 1.048357,1.048357 1.312181,2.101533 1.238281,3.005859 L 17.948972,10.292969 18.656003,11 17.241941,12.414062 16.534909,13.121094 15.827878,12.414062 14.413815,11 l 0.707032,-0.707031 0.927734,0.927734 c 0.08627,-0.70145 -0.100419,-1.514482 -0.927734,-2.3417968 -2.121321,-2.1213203 -4.242188,0 -4.242188,0 L 10.171628,8.171875 c 0,0 1.337152,-1.3374629 3.091797,-1.2539062 z M 9.4645966,8.8789062 10.171628,9.585938 11.585691,11 10.878659,11.707031 9.9509246,10.779297 c -0.08582,0.701506 0.1004124,1.514489 0.9277344,2.341797 2.121314,2.121327 4.242188,0 4.242188,0 l 0.707031,0.707031 c 0,0 -2.827816,2.82842 -5.65625,0 C 9.1232786,12.779761 8.8594537,11.726584 8.9333464,10.822266 L 8.0505338,11.707031 7.3435026,11 8.7575651,9.585938 9.4645966,8.8789062 Z" style="opacity:1000002;fill:#ffffff;fill-opacity:1"/>
</svg>

<?xml version="1.0" encoding="UTF-8" standalone="no"?>
<svg id="svg3039" xmlns:rdf="http://www.w3.org/1999/02/22-rdf-syntax-ns#" xmlns="http://www.w3.org/2000/svg" height="22" width="22" version="1.1" xmlns:cc="http://creativecommons.org/ns#" xmlns:dc="http://purl.org/dc/elements/1.1/">
 <metadata id="metadata3045">
  <rdf:RDF>
   <cc:Work rdf:about="">
    <dc:format>image/svg+xml</dc:format>
    <dc:type rdf:resource="http://purl.org/dc/dcmitype/StillImage"/>
    <dc:title/>
   </cc:Work>
  </rdf:RDF>
 </metadata>
 <path id="path3075" opacity="1e6" d="m2.9998 5v12h2v-12h-2zm4 0v12l4.252-0.0332c2.9313-0.03263 3.208-0.07195 4.4473-0.67578 2.702-1.3165 3.9797-4.5047 2.9414-7.3438-0.686-1.8751-2.248-3.2628-4.237-3.7677-0.625-0.1586-1.021-0.1797-3.449-0.1797h-3.9552zm6.2637 1.918c0.79757 0.03798 1.6806 0.37002 2.5645 1.2539 1.0484 1.0484 1.3122 2.1015 1.2383 3.0059l0.882-0.885 0.707 0.707-1.414 1.414-0.707 0.707-0.707-0.707-1.414-1.414 0.70703-0.70703 0.92773 0.92773c0.08627-0.70145-0.10042-1.5145-0.92773-2.3418-2.1213-2.1213-4.2422 0-4.2422 0l-0.707-0.7073s1.3372-1.3375 3.0918-1.2539zm-3.7994 1.9609 0.7074 0.707 1.414 1.4141-0.707 0.707-0.9281-0.928c-0.08582 0.70151 0.10041 1.5145 0.92773 2.3418 2.1213 2.1213 4.2422 0 4.2422 0l0.70703 0.70703s-2.8278 2.8284-5.6562 0c-1.0487-1.048-1.3125-2.101-1.2387-3.006l-0.8828 0.885-0.707-0.707 1.4141-1.4141 0.707-0.707z" fill="#fff"/>
</svg>
